X: 1515
T: Andy McGann's
R: reel
M: 4/4
K: Cmajor
|:ecBc ecGE|FEDC B,DGF|EGcE FAdc|1 Bg^fg agfg:|2 BG (3GAG BcdB||
|:c2gc acgc|c2ag fedB|1 c2Gc EcGE|FEDC B,DGB:|2 cg^fg dg^fg|bag^f ag^fg||

